X:519
T:Brilliancy Medley
B:Dave Swarbrick Takes a Bow
Z:Nigel Gatherer
M:4/4
L:1/8
K:A
g2 | aece  aece  | aecA BA F2 | E3  B cBcA  | B2 e2   e2 
eg | aece  aece  | aecA BA F2 | E2 EF ABcA  | B2 A2   A2   :| 
z2 | A2 cA G2 BG | FEFG AGFE  | D2 FD C2 EC | B,G,B,C B,DCB,|
     A,CEF A2 cA | BABc dBAG  | Bcde  fgaf  | edcB    A2  :|]

